gamepad/ps4-assets/sticks.svg

<?xml version="1.0" encoding="UTF-8"?><svg id="Layer_1" xmlns="http://www.w3.org/2000/svg" viewBox="0 0 286 94"><defs><style>.cls-1{fill:#ddd;}.cls-2{fill:#f0f0f0;}.cls-3{fill:#dbdbdb;}.cls-4{fill:#a400bc;}.cls-5{fill:#80009b;}</style></defs><g><g><path class="cls-5" d="M47,92.5C21.9,92.5,1.5,72.1,1.5,47S21.9,1.5,47,1.5s45.5,20.4,45.5,45.5-20.4,45.5-45.5,45.5Z"/><path class="cls-4" d="M47,3c24.3,0,44,19.7,44,44s-19.7,44-44,44S3,71.3,3,47,22.7,3,47,3m0-3C21,0,0,21,0,47s21,47,47,47,47-21,47-47S73,0,47,0h0Z"/></g><circle class="cls-4" cx="47" cy="47" r="27.3"/></g><g><g><path class="cls-2" d="M239,92.5c-25.1,0-45.5-20.4-45.5-45.5S213.9,1.5,239,1.5s45.5,20.4,45.5,45.5-20.4,45.5-45.5,45.5Z"/><path class="cls-3" d="M239,3c24.3,0,44,19.7,44,44s-19.7,44-44,44-44-19.7-44-44S214.7,3,239,3m0-3c-26,0-47,21-47,47s21,47,47,47,47-21,47-47S265,0,239,0h0Z"/></g><circle class="cls-1" cx="239" cy="47" r="27.3" transform="translate(151.25 274.22) rotate(-80.01)"/></g><g><g><path class="cls-2" d="M143,92.5c-25.1,0-45.5-20.4-45.5-45.5S117.9,1.5,143,1.5s45.5,20.4,45.5,45.5-20.4,45.5-45.5,45.5Z"/><path class="cls-3" d="M143,3c24.3,0,44,19.7,44,44s-19.7,44-44,44-44-19.7-44-44S118.7,3,143,3m0-3c-26,0-47,21-47,47s21,47,47,47,47-21,47-47S169,0,143,0h0Z"/></g><circle class="cls-1" cx="143" cy="47" r="27.3"/></g></svg>

<?xml version="1.0" encoding="utf-8"?>
<!-- Generator: Adobe Illustrator 26.3.1, SVG Export Plug-In . SVG Version: 6.00 Build 0)  -->
<svg version="1.1" id="Layer_1" xmlns="http://www.w3.org/2000/svg" xmlns:xlink="http://www.w3.org/1999/xlink" x="0px" y="0px"
	 width="286px" height="94px" viewBox="0 0 286 94" style="enable-background:new 0 0 286 94;" xml:space="preserve">
<style type="text/css">
	.st0{fill:#80009B;}
	.st1{fill:#A400BC;}
	.st2{fill:#F0F0F0;}
	.st3{fill:#DBDBDB;}
	.st4{fill:#DDDDDD;}
</style>
<g>
	<g>
		<path class="st0" d="M47,92.5C21.9,92.5,1.5,72.1,1.5,47S21.9,1.5,47,1.5S92.5,21.9,92.5,47S72.1,92.5,47,92.5z"/>
		<path class="st1" d="M47,3c24.3,0,44,19.7,44,44S71.3,91,47,91S3,71.3,3,47S22.7,3,47,3 M47,0C21,0,0,21,0,47s21,47,47,47
			s47-21,47-47S73,0,47,0L47,0z"/>
	</g>
	<circle class="st1" cx="47" cy="47" r="27.3"/>
</g>
<g>
	<g>
		<path class="st2" d="M239,92.5c-25.1,0-45.5-20.4-45.5-45.5S213.9,1.5,239,1.5s45.5,20.4,45.5,45.5S264.1,92.5,239,92.5z"/>
		<path class="st3" d="M239,3c24.3,0,44,19.7,44,44s-19.7,44-44,44s-44-19.7-44-44S214.7,3,239,3 M239,0c-26,0-47,21-47,47
			s21,47,47,47s47-21,47-47S265,0,239,0L239,0z"/>
	</g>
	<ellipse transform="matrix(0.3417 -0.9398 0.9398 0.3417 113.1603 255.5485)" class="st4" cx="239" cy="47" rx="27.3" ry="27.3"/>
</g>
<g>
	<g>
		<path class="st2" d="M143,92.5c-25.1,0-45.5-20.4-45.5-45.5S117.9,1.5,143,1.5s45.5,20.4,45.5,45.5S168.1,92.5,143,92.5z"/>
		<path class="st3" d="M143,3c24.3,0,44,19.7,44,44s-19.7,44-44,44S99,71.3,99,47S118.7,3,143,3 M143,0c-26,0-47,21-47,47
			s21,47,47,47s47-21,47-47S169,0,143,0L143,0z"/>
	</g>
	<circle class="st4" cx="143" cy="47" r="27.3"/>
</g>
</svg>
